X: 23720
T: Lisnagun, The
R: jig
M: 6/8
K: Cmajor
|:cAG c3|deg e3|deg edc|dcA cAG|
cAG c3|deg e3|deg edc|1 dcB c3:|2 dcB cde||
|:g3 edc|deg e3|deg edc|dcB cAG|
g3 edc|deg e3|deg edc|dcB c3:|

